X:1
T:All Things Bright and Beautiful
T:All Things Bright and Beautiful
%%score ( 1 2 ) ( 3 4 )
L:1/8
M:4/4
K:G
V:1 treble nm="Piano" snm="Pno."
V:2 treble 
V:3 bass nm="Piano" snm="Pno."
V:4 bass 
V:1
"^Refrain (Unison)" d2 B2 [Cc]2 [DB]2 | AG FE D2 B2 | c2 E2 F2 EF | G8 | d2 B2 [Cc]2 [DB]2 | %5
w: All things bright and|beau- * ti- * ful, all|crea- tures great and _|small,|all things wise and|
w: |||||
w: |||||
w: |||||
 AG FE D2 B2 | c2 E2 F2 EF | [B,G]6 |] D2 | B,2 D2 D2 CB, | C2 E4 [B,E]2 | FG [EA]2 FG [DA]2 | D6 | %13
w: won- * der- * ful: the|Lord God made them _|all.|1~Each|lit- tle flower that _|o- pens, each|lit- * tle bird _ that|sings,|
w: |||2~The|pur- ple- head- ed *|mount- tains, the|ri- * ver run- * ning|by,|
w: |||3~The|cold wind in the _|win- ter, the|plea- * sant sum- * mer|sun,|
w: |||4~God|gave us eyes to _|see them, and|lips _ that we _ might|tell|
 GA | B2 A2 G2 AB | (c3 B) [FA]2 Bc | [Dd]2 E2 F2 EF |"^to Refrain" G8 || %18
w: God _|made their glo- wing _|co- * lors, and _|made their ti- ny _|wings.|
w: the _|sun- set and the _|mor- * ning that _|brigh- tens up the _|sky.|
w: the _|ripe fruits in the _|gar- * den: God _|made them e- very _|one.|
w: how _|great is God Al- *|migh- * ty, who _|has made all things _|well.|
V:2
 D4 x4 | E2 C2 D4 | C4 A,4 | B,6 C2 | D4 x4 | E2 C2 D4 | C4 A,4 | x6 |] x2 | B,6 x2 | x2 E2 C2 x2 | %11
 D2 x2 D2 x2 | D2 C2 B,2 | D2 | D6 F2 | E4 x2 D2 | x4 A,4 | B,6 C2 || %18
V:3
 G,4 [A,,F,]2 [G,,G,]2 | [C,E,]2 A,F, [B,,G,]2 G,2- | G,4 D,4 | [G,,G,]2 D,2 G,2 A,2 | %4
 [G,B,]2 G,2 G,4 | [C,E,]2 A,F, [B,,G,]2 G,2- | G,4 D,4 | G,,2 D,2 G,2 |] D,2 | G,,2 G,2 =F,2 G,2 | %10
 E,2 G,2 A,,4 | A,2 G,2 A,2 [C,F,]2 | G,6 | C2 | B,6 F,G, | (A,3 G,) D,2 C,2 | G,4 D,4 | %17
 G,6 A,,2 || %18
V:4
 B,,2 G,,2 x4 | x2 A,,2 x4 | E,2 C,2 D,2 D,,2 | x8 | x2 =F,2 E,2 D,2 | x2 A,,2 x4 | %6
 E,2 C,2 D,2 D,,2 | G,,6 |] x2 | G,,8 | C,4 x4 | D,6 x2 | B,,2 A,,2 G,,2 | E,F, | G,2 F,2 E,2 D,2 | %15
 C,2 A,,2 D,2 x2 | B,,2 C,2 D,2 D,,2 | G,2 D,2 G,,2 x2 || %18

